X: 901
T: Smokey Mountain Schottische
B: jims roots
M:C
L:1/8
R: Schottische
Q: 1/4=100
K:D
V:1 
(FG) | "D"Afce dAFA | "G"(B2e2) e3d | "A"caBg Afce | "D"d2F2A2 (FG) |
"D"Afce dAFA | "G"(c2B2) B3B | "A"caBg Afce | "D"[F2d2][A2f2][F2d2]z2 ||
|:[K:G] "G"(B3c) edBG | (DG)(FG) (3EGB (dc) | "C"E3E Fd^cd | "D"(=cA) (3FED "G"E2D2 |
"G"(B3c) edBG | (DG)(FG) (3EGB (dc) | "C"E3G Fd^cd | "D"=cAEF "G"G2z2 :|
"A"E3F ECA,C | ECEA c3c | "E"cBGE CEGB | "A"A2A2A2 ||
V:K:A 
"A"E3F ECA,C | ECEA c3c | "E"e3B "D"d3G | "E"BAGB "A"A2z2 |
% abcbook-tune_id 6298c28753458cd95e100e71


% abcbook-boost 0
% abcbook-tablature 
% abcbook-transpose 
% abcbook-lastupdated 1654178440543
% abcbook-soundfonts 
% abcbook-repeats 1


